web/wp-content/themes/cncf-twenty-two/images/projects/pixie-icon-color.svg

<svg xmlns="http://www.w3.org/2000/svg" role="img" viewBox="-2.48 -2.35 147.82 154.70"><path fill="url(#paint0_linear)" fill-rule="evenodd" d="M44.3018 26.3872c5.0975-2.9431 7.6071-8.6471 6.7303-14.1325 6.4454-2.1431 13.3395-3.30353 20.5047-3.30353 35.8662 0 64.9412 29.07513 64.9412 64.94103 0 18.1669-7.46 34.5918-19.483 46.3778-5.262-4.801-13.224-5.883-19.7217-2.132-6.5276 3.769-9.569 11.257-7.993 18.242-5.6398 1.598-11.5918 2.453-17.7435 2.453-35.866 0-64.9411-29.075-64.9411-64.9408 0-19.4334 8.536-36.8731 22.0632-48.7743 4.3137 3.5295 10.5302 4.2211 15.6429 1.2693zM91.6524 141.941c-6.3773 1.882-13.1285 2.892-20.1156 2.892-39.1797 0-70.9411-31.761-70.9411-70.9408 0-21.3502 9.4316-40.4976 24.3556-53.503-3.088-6.4405-.7381-14.27349 5.5506-17.90426 6.3028-3.63892 14.2829-1.7409 18.3079 4.18485 7.1348-2.41132 14.7782-3.71862 22.727-3.71862 39.1792 0 70.9412 31.76143 70.9412 70.94103 0 20.1173-8.374 38.2788-21.826 51.1888 4.022 7.906 1.192 17.666-6.58 22.153-7.743 4.471-17.5646 2.077-22.4196-5.293zm5.0502-100.1252H52.5002c-.1346 0-.2693.0245-.3917.0796-.1225.0551-.2388.1224-.3367.2265-.0918.0918-.1653.202-.2204.3366-.0551.1286-.0796.2571-.0796.3918v11.7408c0 .2755.1102.5387.3.7346.1898.1958.453.306.7284.306h29.8172v28.3175c0 .1346.0245.2693.0796.3917.0551.1225.1224.2388.2204.3367.0979.098.2081.1714.3366.2265.1225.0551.2571.0796.3918.0796h13.363c.2754 0 .5386-.1102.7284-.3061.1898-.1959.2999-.4591.2999-.7345V42.8503c0-.2755-.1101-.5387-.306-.7346-.202-.1958-.453-.2999-.7285-.2999zm-44.766 27.6195h14.4893c.2571 0 .4652.2081.4591.4713v40.4864c0 .264-.2081.472-.4652.472H51.9366c-.2571 0-.4652-.208-.4652-.472V69.9066c0-.2632.2081-.4713.4652-.4713z" clip-rule="evenodd"/><defs><linearGradient id="paint0_linear" x1="-5.571" x2="131.784" y1="124.45" y2="116.205" gradientUnits="userSpaceOnUse"><stop stop-color="#00DBA6"/><stop offset="1" stop-color="#24B2FF"/></linearGradient></defs></svg>

<svg width="143" height="150" viewBox="0 0 143 150" fill="none" xmlns="http://www.w3.org/2000/svg">
<path fill-rule="evenodd" clip-rule="evenodd" d="M44.3018 26.3872C49.3993 23.4441 51.9089 17.7401 51.0321 12.2547C57.4775 10.1116 64.3716 8.95117 71.5368 8.95117C107.403 8.95117 136.478 38.0263 136.478 73.8922C136.478 92.0591 129.018 108.484 116.995 120.27C111.733 115.469 103.771 114.387 97.2733 118.138C90.7457 121.907 87.7043 129.395 89.2803 136.38C83.6405 137.978 77.6885 138.833 71.5368 138.833C35.6708 138.833 6.5957 109.758 6.5957 73.8922C6.5957 54.4588 15.1317 37.0191 28.6589 25.1179C32.9726 28.6474 39.1891 29.339 44.3018 26.3872ZM91.6524 141.941C85.2751 143.823 78.5239 144.833 71.5368 144.833C32.3571 144.833 0.595703 113.072 0.595703 73.8922C0.595703 52.542 10.0273 33.3946 24.9513 20.3892C21.8633 13.9487 24.2132 6.11571 30.5019 2.48494C36.8047 -1.15398 44.7848 0.744047 48.8098 6.66979C55.9446 4.25847 63.588 2.95117 71.5368 2.95117C110.716 2.95117 142.478 34.7126 142.478 73.8922C142.478 94.0095 134.104 112.171 120.652 125.081C124.674 132.987 121.844 142.747 114.072 147.234C106.329 151.705 96.5074 149.311 91.6524 141.941ZM96.7026 41.8158H52.5002C52.3656 41.8158 52.2309 41.8403 52.1085 41.8954C51.986 41.9505 51.8697 42.0178 51.7718 42.1219C51.68 42.2137 51.6065 42.3239 51.5514 42.4585C51.4963 42.5871 51.4718 42.7156 51.4718 42.8503V54.5911C51.4718 54.8666 51.582 55.1298 51.7718 55.3257C51.9616 55.5215 52.2248 55.6317 52.5002 55.6317H82.3174V83.9492C82.3174 84.0838 82.3419 84.2185 82.397 84.3409C82.4521 84.4634 82.5194 84.5797 82.6174 84.6776C82.7153 84.7756 82.8255 84.849 82.954 84.9041C83.0765 84.9592 83.2111 84.9837 83.3458 84.9837H96.7088C96.9842 84.9837 97.2474 84.8735 97.4372 84.6776C97.627 84.4817 97.7371 84.2185 97.7371 83.9431V42.8503C97.7371 42.5748 97.627 42.3116 97.4311 42.1157C97.2291 41.9199 96.9781 41.8158 96.7026 41.8158ZM51.9366 69.4353H66.4259C66.683 69.4353 66.8911 69.6434 66.885 69.9066V110.393C66.885 110.657 66.6769 110.865 66.4198 110.865H51.9366C51.6795 110.865 51.4714 110.657 51.4714 110.393V69.9066C51.4714 69.6434 51.6795 69.4353 51.9366 69.4353Z" fill="url(#paint0_linear)"/>
<defs>
<linearGradient id="paint0_linear" x1="-5.57146" y1="124.45" x2="131.784" y2="116.205" gradientUnits="userSpaceOnUse">
<stop stop-color="#00DBA6"/>
<stop offset="1" stop-color="#24B2FF"/>
</linearGradient>
</defs>
</svg>
